communes/2511.svg

<?xml version="1.0" encoding="UTF-8" standalone="no"?>
<svg
   xmlns:dc="http://purl.org/dc/elements/1.1/"
   xmlns:cc="http://creativecommons.org/ns#"
   xmlns:rdf="http://www.w3.org/1999/02/22-rdf-syntax-ns#"
   xmlns:svg="http://www.w3.org/2000/svg"
   xmlns="http://www.w3.org/2000/svg"
   xmlns:sodipodi="http://sodipodi.sourceforge.net/DTD/sodipodi-0.dtd"
   xmlns:inkscape="http://www.inkscape.org/namespaces/inkscape"
   version="1.0"
   width="208.86046"
   height="244.65999"
   id="svg2780"
   inkscape:version="0.92.4 (5da689c313, 2019-01-14)"
   sodipodi:docname="2511.svg">
  <metadata
     id="metadata27">
    <rdf:RDF>
      <cc:Work
         rdf:about="">
        <dc:format>image/svg+xml</dc:format>
        <dc:type
           rdf:resource="http://purl.org/dc/dcmitype/StillImage" />
        <dc:title />
      </cc:Work>
    </rdf:RDF>
  </metadata>
  <sodipodi:namedview
     pagecolor="#ffffff"
     bordercolor="#666666"
     borderopacity="1"
     objecttolerance="10"
     gridtolerance="10"
     guidetolerance="10"
     inkscape:pageopacity="0"
     inkscape:pageshadow="2"
     inkscape:window-width="3259"
     inkscape:window-height="1417"
     id="namedview25"
     showgrid="false"
     inkscape:zoom="0.99999999"
     inkscape:cx="-539.25711"
     inkscape:cy="-55.032314"
     inkscape:window-x="-8"
     inkscape:window-y="-8"
     inkscape:window-maximized="1"
     inkscape:current-layer="svg2780"
     inkscape:measure-start="104.255,149.787"
     inkscape:measure-end="104.255,126.383"
     showguides="true"
     inkscape:object-paths="true"
     inkscape:snap-intersection-paths="true"
     inkscape:document-rotation="0" />
  <defs
     id="defs2782" />
  <path
     inkscape:connector-curvature="0"
     style="fill:#cc2918;fill-opacity:1;fill-rule:evenodd;stroke:#000000;stroke-width:1.99999988;stroke-linecap:butt;stroke-miterlimit:4;stroke-dashoffset:0;stroke-opacity:1"
     id="path4212"
     d="m 1,1 3.761095,158.00304 c 2.686489,112.85918 196.651755,112.85918 199.338255,0 L 207.86045,1 Z" />
  <path
     id="path850-6-6"
     style="opacity:1;fill:#feeb00;fill-opacity:1;stroke:#000000;stroke-width:1;stroke-miterlimit:4;stroke-dasharray:none;stroke-dashoffset:4.57999992;stroke-opacity:1"
     d="m 194.422,23.805968 -9.23274,10.928615 9.23275,10.928606 -13.98228,-2.615626 -4.74952,13.54425 -4.74953,-13.54425 -13.98227,2.615626 9.23275,-10.928606 -9.23275,-10.928624 13.98227,2.615635 4.74953,-13.54424 4.74952,13.54424 z"
     inkscape:connector-curvature="0"
     sodipodi:nodetypes="ccccccccccccc" />
  <path
     id="path11654-7"
     style="opacity:1;fill:#feeb00;fill-opacity:1;stroke:#000000;stroke-width:0.99999994;stroke-miterlimit:6.0869565;stroke-dasharray:none;stroke-dashoffset:4.57999992;stroke-opacity:1"
     d="m 79.671102,124.3201 h -3.362204 c -1.739527,7.01264 -3.047737,8.2256 -9.077968,8.88817 l 0,-44.379277 80.50308,0 c -0.66418,6.015557 -1.88011,7.320577 -8.90985,9.055867 v 3.35403 l -59.153058,0 z"
     inkscape:connector-curvature="0"
     sodipodi:nodetypes="ccccccccc" />
  <path
     id="path1639-9"
     style="opacity:1;fill:#009645;fill-opacity:1;stroke:#000000;stroke-width:1.00157475;stroke-miterlimit:4;stroke-dasharray:none;stroke-dashoffset:4.57999992;stroke-opacity:1"
     d="m 141.01809,238.21467 c 10.11003,-5.36401 20.42898,-23.17573 8.79306,-35.29878 -6.25119,-6.51289 -18.106,-6.62307 -26.06637,3.12193 2.67755,-15.3952 -7.77137,-24.28076 -19.31454,-24.28076 -11.54317,0 -21.992088,8.88556 -19.314535,24.28076 -7.960369,-9.745 -19.815185,-9.63482 -26.066376,-3.12193 -11.635918,12.12305 -1.316972,29.93477 8.793064,35.29878 14.913547,4.25497 21.115209,4.80792 36.587847,5.43239 15.47264,-0.62447 21.6743,-1.17742 36.58785,-5.43239 z"
     inkscape:connector-curvature="0"
     sodipodi:nodetypes="cscccsccc" />
  <path
     id="path850-6-6-0"
     style="opacity:1;fill:#feeb00;fill-opacity:1;stroke:#000000;stroke-width:1;stroke-miterlimit:4;stroke-dasharray:none;stroke-dashoffset:4.57999992;stroke-opacity:1"
     d="m 194.422,77.842279 -9.23274,10.928615 9.23275,10.928606 -13.98228,-2.615622 -4.74952,13.544242 -4.74953,-13.544242 -13.98227,2.615622 9.23275,-10.928606 -9.23275,-10.928625 13.98227,2.615636 4.74953,-13.544241 4.74952,13.544241 z"
     inkscape:connector-curvature="0"
     sodipodi:nodetypes="ccccccccccccc" />
  <path
     id="path850-6-6-3"
     style="opacity:1;fill:#feeb00;fill-opacity:1;stroke:#000000;stroke-width:1;stroke-miterlimit:4;stroke-dasharray:none;stroke-dashoffset:4.57999992;stroke-opacity:1"
     d="M 14.438479,23.805968 23.671224,34.734583 14.43847,45.663189 28.420751,43.047563 33.17027,56.591813 37.919798,43.047563 51.90207,45.663189 42.669317,34.734583 51.90207,23.805959 37.919798,26.421594 33.17027,12.877354 28.420751,26.421594 Z"
     inkscape:connector-curvature="0"
     sodipodi:nodetypes="ccccccccccccc" />
  <path
     id="path45235-4-3-2"
     style="opacity:1;fill:#000000;fill-opacity:1;stroke:#000000;stroke-width:1;stroke-miterlimit:12;stroke-dasharray:none;stroke-dashoffset:4.57999992;stroke-opacity:1"
     d="m 116.28154,17.501933 c -1.77998,1.237306 -4.77964,3.818236 -4.77964,6.060883 v 26.024087 h 26.02408 c 2.24265,0 4.82358,-2.99966 6.06089,-4.77964 v 23.7026 c -1.23731,-1.77998 -3.81824,-4.77964 -6.06089,-4.77964 H 111.5019 v 83.054767 c 0,4.25084 2.52019,10.28241 8.4981,9 13.09349,-2.80888 26.33159,-8.31588 36,-19.25 -1.45123,-1.16801 -3.19934,-1.98965 -5,-2.75 7.63989,-2.95942 14.80291,-7.05141 21.5,-12.25 -1.10547,10.67227 -3.53489,17.89039 -7.6875,26.6875 -0.5113,-1.82926 -1.06627,-3.64408 -1.875,-5.375 -15.10902,22.62623 -35.84512,31.80712 -58.50726,32.0625 -22.66214,-0.25538 -43.39824,-9.43627 -58.50726,-32.0625 -0.80873,1.73092 -1.3637,3.54574 -1.875,5.375 -4.15261,-8.79711 -6.58203,-16.01523 -7.6875,-26.6875 6.69709,5.19859 13.86011,9.29058 21.5,12.25 -1.80066,0.76035 -3.54877,1.58199 -5,2.75 9.66841,10.93412 22.90651,16.44112 36,19.25 5.97791,1.28241 8.4981,-4.74916 8.4981,-9 V 63.730223 H 71.3345 c -2.24265,0 -4.82358,2.99966 -6.06089,4.77964 v -23.7026 c 1.23731,1.77998 3.81824,4.77964 6.06089,4.77964 H 97.35858 V 23.562816 c 0,-2.242647 -2.99966,-4.823577 -4.77964,-6.060883 7.90087,0 15.80173,0 23.7026,0 z"
     inkscape:connector-curvature="0"
     sodipodi:nodetypes="cscsccscsscccccccccccsscsccscscc" />
  <path
     id="path850-6-6-0-1"
     style="opacity:1;fill:#feeb00;fill-opacity:1;stroke:#000000;stroke-width:1;stroke-miterlimit:4;stroke-dasharray:none;stroke-dashoffset:4.57999992;stroke-opacity:1"
     d="M 14.438479,77.842279 23.671224,88.770894 14.43847,99.6995 28.420751,97.083878 33.17027,110.62812 37.919798,97.083878 51.90207,99.6995 42.669317,88.770894 51.90207,77.842269 37.919798,80.457905 33.17027,66.913664 28.420751,80.457905 Z"
     inkscape:connector-curvature="0"
     sodipodi:nodetypes="ccccccccccccc" />
  <path
     inkscape:connector-curvature="0"
     style="fill:none;fill-opacity:1;fill-rule:evenodd;stroke:#000000;stroke-width:1.99999988;stroke-linecap:butt;stroke-miterlimit:4;stroke-dashoffset:0;stroke-opacity:1"
     id="path4212-9"
     d="M 1,0.99999834 4.761095,159.00304 c 2.686489,112.85918 196.651755,112.85918 199.338255,0 l 3.7611,-158.00304166 z" />
</svg>

<?xml version="1.0" encoding="UTF-8"?>
<svg version="1.0" viewBox="0 0 208.86 244.66" xmlns="http://www.w3.org/2000/svg" xmlns:cc="http://creativecommons.org/ns#" xmlns:dc="http://purl.org/dc/elements/1.1/" xmlns:rdf="http://www.w3.org/1999/02/22-rdf-syntax-ns#">
<metadata>
<rdf:RDF>
<cc:Work rdf:about="">
<dc:format>image/svg+xml</dc:format>
<dc:type rdf:resource="http://purl.org/dc/dcmitype/StillImage"/>
<dc:title/>
</cc:Work>
</rdf:RDF>
</metadata>
<path d="m1 1 3.7611 158c2.6865 112.86 196.65 112.86 199.34 0l3.7611-158z" fill="#cc2918" fill-rule="evenodd" stroke="#000" stroke-width="2"/>
<path d="m194.42 23.806-9.2327 10.929 9.2328 10.929-13.982-2.6156-4.7495 13.544-4.7495-13.544-13.982 2.6156 9.2328-10.929-9.2328-10.929 13.982 2.6156 4.7495-13.544 4.7495 13.544z" fill="#feeb00" stroke="#000" stroke-dashoffset="4.58"/>
<path d="m79.671 124.32h-3.3622c-1.7395 7.0126-3.0477 8.2256-9.078 8.8882v-44.379h80.503c-0.66418 6.0156-1.8801 7.3206-8.9098 9.0559v3.354h-59.153z" fill="#feeb00" stroke="#000" stroke-dashoffset="4.58" stroke-miterlimit="6.087"/>
<path d="m141.02 238.21c10.11-5.364 20.429-23.176 8.7931-35.299-6.2512-6.5129-18.106-6.6231-26.066 3.1219 2.6776-15.395-7.7714-24.281-19.315-24.281s-21.992 8.8856-19.315 24.281c-7.9604-9.745-19.815-9.6348-26.066-3.1219-11.636 12.123-1.317 29.935 8.7931 35.299 14.914 4.255 21.115 4.8079 36.588 5.4324 15.473-0.62447 21.674-1.1774 36.588-5.4324z" fill="#009645" stroke="#000" stroke-dashoffset="4.58" stroke-width="1.0016"/>
<path d="m194.42 77.842-9.2327 10.929 9.2328 10.929-13.982-2.6156-4.7495 13.544-4.7495-13.544-13.982 2.6156 9.2328-10.929-9.2328-10.929 13.982 2.6156 4.7495-13.544 4.7495 13.544z" fill="#feeb00" stroke="#000" stroke-dashoffset="4.58"/>
<path d="m14.438 23.806 9.2327 10.929-9.2328 10.929 13.982-2.6156 4.7495 13.544 4.7495-13.544 13.982 2.6156-9.2328-10.929 9.2328-10.929-13.982 2.6156-4.7495-13.544-4.7495 13.544z" fill="#feeb00" stroke="#000" stroke-dashoffset="4.58"/>
<path d="m116.28 17.502c-1.78 1.2373-4.7796 3.8182-4.7796 6.0609v26.024h26.024c2.2426 0 4.8236-2.9997 6.0609-4.7796v23.703c-1.2373-1.78-3.8182-4.7796-6.0609-4.7796h-26.024v83.055c0 4.2508 2.5202 10.282 8.4981 9 13.093-2.8089 26.332-8.3159 36-19.25-1.4512-1.168-3.1993-1.9896-5-2.75 7.6399-2.9594 14.803-7.0514 21.5-12.25-1.1055 10.672-3.5349 17.89-7.6875 26.688-0.5113-1.8293-1.0663-3.6441-1.875-5.375-15.109 22.626-35.845 31.807-58.507 32.062-22.662-0.25538-43.398-9.4363-58.507-32.062-0.80873 1.7309-1.3637 3.5457-1.875 5.375-4.1526-8.7971-6.582-16.015-7.6875-26.688 6.6971 5.1986 13.86 9.2906 21.5 12.25-1.8007 0.76035-3.5488 1.582-5 2.75 9.6684 10.934 22.907 16.441 36 19.25 5.9779 1.2824 8.4981-4.7492 8.4981-9v-83.055h-26.024c-2.2426 0-4.8236 2.9997-6.0609 4.7796v-23.703c1.2373 1.78 3.8182 4.7796 6.0609 4.7796h26.024v-26.024c0-2.2426-2.9997-4.8236-4.7796-6.0609h23.703z" stroke="#000" stroke-dashoffset="4.58" stroke-miterlimit="12"/>
<path d="m14.438 77.842 9.2327 10.929-9.2328 10.929 13.982-2.6156 4.7495 13.544 4.7495-13.544 13.982 2.6156-9.2328-10.929 9.2328-10.929-13.982 2.6156-4.7495-13.544-4.7495 13.544z" fill="#feeb00" stroke="#000" stroke-dashoffset="4.58"/>
<path d="m1 1 3.7611 158c2.6865 112.86 196.65 112.86 199.34 0l3.7611-158z" fill="none" stroke="#000" stroke-width="2"/>
</svg>
